X: 37430
T: Sliabh League, The
R: slip jig
M: 9/8
K: Dmajor
|:FAA AFd AFD|G2 B BGB Bcd|F2 A AFB ABc|dAF DEF E2 D:|
|:d2 B AFA A^GA|Bee eaf gfe|d2 B AFB ABc|1 dAF DEF E2 D:|2 dfa agf e2 d||

